src/assets/icons/calendar-events,fancy,columns.svg

<svg width="48" height="48" viewBox="0 0 48 48" fill="none" xmlns="http://www.w3.org/2000/svg">
<rect opacity="0.2" x="4" y="6" width="40" height="40" rx="4" fill="black"/>
<g opacity="0.4">
<path d="M10 4C10 2.89543 10.8954 2 12 2C13.1046 2 14 2.89543 14 4V8C14 9.10457 13.1046 10 12 10C10.8954 10 10 9.10457 10 8V4Z" fill="black"/>
<path d="M34 4C34 2.89543 34.8954 2 36 2C37.1046 2 38 2.89543 38 4V8C38 9.10457 37.1046 10 36 10C34.8954 10 34 9.10457 34 8V4Z" fill="black"/>
</g>
<path fill-rule="evenodd" clip-rule="evenodd" d="M10 6.00869C7.52043 6.04456 6.11466 6.22849 5.17157 7.17157C4 8.34315 4 10.2288 4 14V16H44V14C44 10.2288 44 8.34315 42.8284 7.17157C41.8853 6.22849 40.4796 6.04456 38 6.00869V8C38 9.10457 37.1046 10 36 10C34.8954 10 34 9.10457 34 8V6H14V8C14 9.10457 13.1046 10 12 10C10.8954 10 10 9.10457 10 8V6.00869Z" fill="black"/>
<path opacity="0.2" fill-rule="evenodd" clip-rule="evenodd" d="M4 15V38C4 41.7712 4 43.6569 5.17157 44.8284C6.07782 45.7347 7.41131 45.9399 9.71429 45.9864L9.71429 15H4ZM21.1429 46H15.4286L15.4286 15H21.1429V46ZM32.5714 46H26.8571L26.8571 15H32.5714V46ZM44 38V15H38.2857V45.9864C40.5887 45.9399 41.9222 45.7347 42.8284 44.8284C44 43.6569 44 41.7712 44 38Z" fill="black"/>
</svg>

<svg xmlns="http://www.w3.org/2000/svg" width="48" height="48" fill="none" viewBox="0 0 48 48">
  <rect width="40" height="40" x="4" y="6" fill="#000" opacity=".2" rx="4"/>
  <g opacity=".4">
    <path fill="#000" d="M10 4a2 2 0 114 0v4a2 2 0 11-4 0V4zM34 4a2 2 0 114 0v4a2 2 0 11-4 0V4z"/>
  </g>
  <path fill="#000" fill-rule="evenodd" d="M10 6.009c-2.48.036-3.885.22-4.828 1.163C4 8.343 4 10.229 4 14v2h40v-2c0-3.771 0-5.657-1.172-6.828-.943-.944-2.348-1.127-4.828-1.163V8a2 2 0 11-4 0V6H14v2a2 2 0 11-4 0V6.009z" clip-rule="evenodd"/>
  <path fill="#000" fill-rule="evenodd" d="M4 15v23c0 3.771 0 5.657 1.172 6.828.906.907 2.24 1.112 4.542 1.158V15H4zm17.143 31h-5.714V15h5.714v31zm11.428 0h-5.714V15h5.714v31zM44 38V15h-5.714v30.986c2.303-.046 3.636-.251 4.542-1.158C44 43.657 44 41.771 44 38z" clip-rule="evenodd" opacity=".2"/>
</svg>
